X:805
T:Bonnie Lass O'Fyvie #1, The
C:Joe Buchanan's Scottish Tome - Page 055.4
I:055 4
R:Strathspey
Z:Carl Allison
L:1/8
M:4/4
K:Dmaj
A|dd2e d3A|dd2e d3f|e2fg a2gf|e2A2 A3g|
f>efg a2 AA|dedB G2BB|A2d>d edcB|A2d2 d2 fe||
d>cde d2FG|A>BAF A3A|A2d>e fagf|e2A>B A3g|
f>efg a2 AA|d>edB G2BB|A2d>d edcB|A2d>d d3||
